X: 1280
T: An Feirin
R: reel
M: 4/4
K: Dmajor
|:DAAD A2 DA|A2 DA GE =c2|DAAD AD ~D2|d=cAG FGEF|
DAAD A2 DA|A2 DA GE =c2|DAAD AD ~D2|d=cAG FGEF:|
|:Ddd^c (3ddd Ad|(3ddd Ad =c3 z1|DddA (3ddd ed|=cAGE AD D2|
Ddd^c (3ddd Ad|(3ddd Ad =c3 z1|de=fe d=cAd|=cAGE AD D2:|

